src/symbolic/places/internet-radio-symbolic.svg

<svg xmlns="http://www.w3.org/2000/svg" width="16" height="16" version="1.1">
 <path style="fill:#666" d="M 8 0 A 6 6 0 0 0 2 6 A 6 6 0 0 0 3.8828125 10.359375 L 4.3183594 9.375 A 5 5 0 0 1 3 6 A 5 5 0 0 1 8 1 A 5 5 0 0 1 13 6 A 5 5 0 0 1 11.681641 9.375 L 12.115234 10.355469 A 6 6 0 0 0 14 6 A 6 6 0 0 0 8 0 z M 8 2 A 4 4 0 0 0 4 6 A 4 4 0 0 0 4.7714844 8.3515625 L 5.0273438 7.7734375 L 5.2675781 7.2304688 A 3 3 0 0 1 5 6 A 3 3 0 0 1 5.0585938 5.4160156 C 5.0593613 5.4121945 5.0597646 5.4081129 5.0605469 5.4042969 C 5.0626075 5.3942452 5.0661971 5.3850162 5.0683594 5.375 A 3 3 0 0 1 7.3632812 3.0722656 C 7.3836368 3.0677811 7.403326 3.0626568 7.4238281 3.0585938 A 3 3 0 0 1 8 3 A 3 3 0 0 1 8.5839844 3.0585938 A 3 3 0 0 1 8.5957031 3.0605469 C 8.6057548 3.0626075 8.6149838 3.0661971 8.625 3.0683594 A 3 3 0 0 1 10.927734 5.3632812 C 10.932219 5.3836368 10.937343 5.403326 10.941406 5.4238281 A 3 3 0 0 1 11 6 A 3 3 0 0 1 10.732422 7.2324219 L 11.228516 8.3535156 A 4 4 0 0 0 12 6 A 4 4 0 0 0 8 2 z M 8 4 C 6.8954305 4 6 4.8954305 6 6 C 6 7.1045695 6.8954305 8 8 8 C 9.1045695 8 10 7.1045695 10 6 C 10 4.8954305 9.1045695 4 8 4 z M 5.9414062 8.1777344 L 2.4785156 16 L 4.6640625 16 L 5.1074219 15 L 10.892578 15 L 11.335938 16 L 13.521484 16 L 10.058594 8.1796875 C 9.5598523 8.6509959 8.9146101 8.937081 8.2304688 8.9902344 L 8.6777344 10 L 7.3222656 10 L 7.7695312 8.9882812 C 7.08539 8.9351279 6.4401476 8.6490428 5.9414062 8.1777344 z M 6.4355469 12 L 9.5644531 12 L 10.007812 13 L 5.9921875 13 L 6.4355469 12 z"/>
</svg>

<svg xmlns="http://www.w3.org/2000/svg" width="16" height="16"><path d="M8 0a6 6 0 0 0-6 6 6 6 0 0 0 1.883 4.36l.435-.985A5 5 0 0 1 3 6a5 5 0 0 1 5-5 5 5 0 0 1 5 5 5 5 0 0 1-1.318 3.375l.433.98A6 6 0 0 0 14 6a6 6 0 0 0-6-6zm0 2a4 4 0 0 0-4 4 4 4 0 0 0 .771 2.352l.256-.579.24-.543A3 3 0 0 1 5 6a3 3 0 0 1 .059-.584c0-.004 0-.008.002-.012l.007-.029a3 3 0 0 1 2.295-2.303c.02-.004.04-.01.06-.013A3 3 0 0 1 8 3a3 3 0 0 1 .584.059 3 3 0 0 1 .012.002l.029.007a3 3 0 0 1 2.303 2.295c.004.02.01.04.013.06A3 3 0 0 1 11 6a3 3 0 0 1-.268 1.232l.497 1.122A4 4 0 0 0 12 6a4 4 0 0 0-4-4zm0 2a2 2 0 1 0 0 4 2 2 0 0 0 0-4zM5.941 8.178L2.48 16h2.185l.443-1h5.786l.443 1h2.185L10.06 8.18a3 3 0 0 1-1.829.81L8.678 10H7.322l.448-1.012a3 3 0 0 1-1.829-.81zM6.436 12h3.128l.444 1H5.992l.444-1z" fill="#5d656b"/></svg>
